images/indikatorenset/5876.svg

<?xml version="1.0" standalone="no"?><!DOCTYPE svg PUBLIC "-//W3C//DTD SVG 1.1//EN" "http://www.w3.org/Graphics/SVG/1.1/DTD/svg11.dtd"><svg xmlns:xlink="http://www.w3.org/1999/xlink" version="1.1" class="highcharts-root" style="font-family:arial;font-size:12px;" xmlns="http://www.w3.org/2000/svg" width="320" height="208"><desc>Created with Highstock 5.0.14</desc><defs><clipPath id="highcharts-oeml5ns-6"><rect x="0" y="0" width="279" height="111" fill="none"></rect></clipPath><clipPath id="highcharts-oeml5ns-7"><rect x="0" y="0" width="279" height="111" fill="none"></rect></clipPath></defs><rect fill="#fbfbfb" class="highcharts-background" x="0" y="0" width="320" height="208" rx="0" ry="0"></rect><rect fill="none" class="highcharts-plot-background" x="38" y="56" width="279" height="111"></rect><g class="highcharts-pane-group"></g><g class="highcharts-grid highcharts-xaxis-grid "><path fill="none" class="highcharts-grid-line" d="M 53.5 56 L 53.5 167" opacity="1"></path><path fill="none" class="highcharts-grid-line" d="M 81.5 56 L 81.5 167" opacity="1"></path><path fill="none" class="highcharts-grid-line" d="M 108.5 56 L 108.5 167" opacity="1"></path><path fill="none" class="highcharts-grid-line" d="M 135.5 56 L 135.5 167" opacity="1"></path><path fill="none" class="highcharts-grid-line" d="M 163.5 56 L 163.5 167" opacity="1"></path><path fill="none" class="highcharts-grid-line" d="M 190.5 56 L 190.5 167" opacity="1"></path><path fill="none" class="highcharts-grid-line" d="M 218.5 56 L 218.5 167" opacity="1"></path><path fill="none" class="highcharts-grid-line" d="M 245.5 56 L 245.5 167" opacity="1"></path><path fill="none" class="highcharts-grid-line" d="M 272.5 56 L 272.5 167" opacity="1"></path><path fill="none" class="highcharts-grid-line" d="M 300.5 56 L 300.5 167" opacity="1"></path></g><g class="highcharts-grid highcharts-yaxis-grid "><path fill="none" stroke="#B9CFD7" stroke-width="0.5" class="highcharts-grid-line" d="M 38 167.25 L 317 167.25" opacity="1"></path><path fill="none" stroke="#B9CFD7" stroke-width="0.5" class="highcharts-grid-line" d="M 38 130.25 L 317 130.25" opacity="1"></path><path fill="none" stroke="#B9CFD7" stroke-width="0.5" class="highcharts-grid-line" d="M 38 93.25 L 317 93.25" opacity="1"></path><path fill="none" stroke="#B9CFD7" stroke-width="0.5" class="highcharts-grid-line" d="M 38 55.75 L 317 55.75" opacity="1"></path></g><rect fill="none" class="highcharts-plot-border" x="38" y="56" width="279" height="111"></rect><g class="highcharts-axis highcharts-xaxis "><path fill="none" class="highcharts-axis-line" stroke="#B9CFD7" stroke-width="0.5" d="M 38 167.25 L 317 167.25"></path></g><g class="highcharts-axis highcharts-yaxis "><path fill="none" class="highcharts-axis-line" d="M 38 56 L 38 167"></path></g><g class="highcharts-series-group"><g class="highcharts-series highcharts-series-0 highcharts-column-series highcharts-color-undefined " transform="translate(38,56) scale(1 1)" clip-path="url(#highcharts-oeml5ns-7)"><rect x="8.5" y="64.5" width="15" height="10" fill="#b475ab" stroke="#b475ab" stroke-width="1" class="highcharts-point"></rect><rect x="35.5" y="57.5" width="15" height="17" fill="#b475ab" stroke="#b475ab" stroke-width="1" class="highcharts-point"></rect><rect x="62.5" y="36.5" width="15" height="38" fill="#b475ab" stroke="#b475ab" stroke-width="1" class="highcharts-point"></rect><rect x="90.5" y="43.5" width="15" height="31" fill="#b475ab" stroke="#b475ab" stroke-width="1" class="highcharts-point"></rect><rect x="117.5" y="44.5" width="15" height="29" fill="#b475ab" stroke="#b475ab" stroke-width="1" class="highcharts-point"></rect><rect x="145.5" y="50.5" width="15" height="22" fill="#b475ab" stroke="#b475ab" stroke-width="1" class="highcharts-point"></rect><rect x="172.5" y="57.5" width="15" height="14" fill="#b475ab" stroke="#b475ab" stroke-width="1" class="highcharts-point"></rect><rect x="200.5" y="29.5" width="15" height="30" fill="#b475ab" stroke="#b475ab" stroke-width="1" class="highcharts-point"></rect><rect x="227.5" y="7.5" width="15" height="65" fill="#b475ab" stroke="#b475ab" stroke-width="1" class="highcharts-point"></rect><rect x="254.5" y="31.5" width="15" height="34" fill="#b475ab" stroke="#b475ab" stroke-width="1" class="highcharts-point"></rect></g><g class="highcharts-markers highcharts-series-0 highcharts-column-series highcharts-color-undefined " transform="translate(38,56) scale(1 1)" clip-path="none"></g><g class="highcharts-series highcharts-series-1 highcharts-column-series highcharts-color-undefined " transform="translate(38,56) scale(1 1)" clip-path="url(#highcharts-oeml5ns-7)"><rect x="8.5" y="80.5" width="15" height="9" fill="#a8c4cb" stroke="#a8c4cb" stroke-width="1" class="highcharts-point highcharts-negative"></rect><rect x="35.5" y="76.5" width="15" height="11" fill="#a8c4cb" stroke="#a8c4cb" stroke-width="1" class="highcharts-point highcharts-negative"></rect><rect x="62.5" y="75.5" width="15" height="13" fill="#a8c4cb" stroke="#a8c4cb" stroke-width="1" class="highcharts-point highcharts-negative"></rect><rect x="90.5" y="75.5" width="15" height="12" fill="#a8c4cb" stroke="#a8c4cb" stroke-width="1" class="highcharts-point highcharts-negative"></rect><rect x="117.5" y="74.5" width="15" height="5" fill="#a8c4cb" stroke="#a8c4cb" stroke-width="1" class="highcharts-point highcharts-negative"></rect><rect x="145.5" y="74.5" width="15" height="2" fill="#a8c4cb" stroke="#a8c4cb" stroke-width="1" class="highcharts-point highcharts-negative"></rect><rect x="172.5" y="74.5" width="15" height="3" fill="#a8c4cb" stroke="#a8c4cb" stroke-width="1" class="highcharts-point highcharts-negative"></rect><rect x="200.5" y="74.5" width="15" height="4" fill="#a8c4cb" stroke="#a8c4cb" stroke-width="1" class="highcharts-point highcharts-negative"></rect><rect x="227.5" y="74.5" width="15" height="15" fill="#a8c4cb" stroke="#a8c4cb" stroke-width="1" class="highcharts-point highcharts-negative"></rect><rect x="254.5" y="74.5" width="15" height="6" fill="#a8c4cb" stroke="#a8c4cb" stroke-width="1" class="highcharts-point highcharts-negative"></rect></g><g class="highcharts-markers highcharts-series-1 highcharts-column-series highcharts-color-undefined " transform="translate(38,56) scale(1 1)" clip-path="none"></g><g class="highcharts-series highcharts-series-2 highcharts-column-series highcharts-color-undefined " transform="translate(38,56) scale(1 1)" clip-path="url(#highcharts-oeml5ns-7)"><rect x="8.5" y="74.5" width="15" height="6" fill="#fabd24" stroke="#fabd24" stroke-width="1" class="highcharts-point highcharts-negative"></rect><rect x="35.5" y="74.5" width="15" height="2" fill="#fabd24" stroke="#fabd24" stroke-width="1" class="highcharts-point highcharts-negative"></rect><rect x="62.5" y="74.5" width="15" height="1" fill="#fabd24" stroke="#fabd24" stroke-width="1" class="highcharts-point highcharts-negative"></rect><rect x="90.5" y="74.5" width="15" height="1" fill="#fabd24" stroke="#fabd24" stroke-width="1" class="highcharts-point highcharts-negative"></rect><rect x="117.5" y="73.5" width="15" height="1" fill="#fabd24" stroke="#fabd24" stroke-width="1" class="highcharts-point"></rect><rect x="145.5" y="72.5" width="15" height="2" fill="#fabd24" stroke="#fabd24" stroke-width="1" class="highcharts-point"></rect><rect x="172.5" y="71.5" width="15" height="3" fill="#fabd24" stroke="#fabd24" stroke-width="1" class="highcharts-point"></rect><rect x="200.5" y="59.5" width="15" height="15" fill="#fabd24" stroke="#fabd24" stroke-width="1" class="highcharts-point"></rect><rect x="227.5" y="72.5" width="15" height="2" fill="#fabd24" stroke="#fabd24" stroke-width="1" class="highcharts-point"></rect><rect x="254.5" y="65.5" width="15" height="9" fill="#fabd24" stroke="#fabd24" stroke-width="1" class="highcharts-point"></rect></g><g class="highcharts-markers highcharts-series-2 highcharts-column-series highcharts-color-undefined " transform="translate(38,56) scale(1 1)" clip-path="none"></g><g class="highcharts-series highcharts-series-3 highcharts-line-series highcharts-color-undefined " transform="translate(38,56) scale(1 1)" clip-path="url(#highcharts-oeml5ns-7)"><path fill="none" d="M 16.169941060902 79.01555555555555 L 43.576620825146 70.05333333333334 L 70.98330058939 49.33333333333333 L 98.389980353634 56.897777777777776 L 125.79666011788 48.428888888888885 L 153.20333988212 51.8 L 180.61001964637 59.94 L 208.01669941061 33.21777777777777 L 235.42337917485 21.78888888888889 L 262.8300589391 37.57555555555555" class="highcharts-graph" stroke="#000000" stroke-width="2" stroke-linejoin="round" stroke-linecap="round"></path></g><g class="highcharts-markers highcharts-series-3 highcharts-line-series highcharts-color-undefined " transform="translate(38,56) scale(1 1)" clip-path="none"></g></g><text x="3" text-anchor="start" class="highcharts-title" style="color:#000000;font-size:10px;font-weight:bold;fill:#000000;" y="14"><tspan>Nettowohnungsproduktion</tspan></text><g class="highcharts-legend" transform="translate(28,7)"><rect fill="none" class="highcharts-legend-box" rx="0" ry="0" x="0" y="0" width="196" height="37" visibility="visible"></rect><g><g><g class="highcharts-legend-item highcharts-column-series highcharts-color-undefined highcharts-series-0" transform="translate(8,3)"><text x="21" style="color:#333333;font-size:10px;font-weight:normal;cursor:pointer;fill:#333333;" text-anchor="start" y="13"><tspan>Neubau</tspan></text><rect x="3" y="4" width="10" height="10" fill="#b475ab" class="highcharts-point"></rect></g><g class="highcharts-legend-item highcharts-column-series highcharts-color-undefined highcharts-series-1" transform="translate(108,3)"><text x="21" y="13" style="color:#333333;font-size:10px;font-weight:normal;cursor:pointer;fill:#333333;" text-anchor="start"><tspan>Abbruch</tspan></text><rect x="3" y="4" width="10" height="10" fill="#a8c4cb" class="highcharts-point"></rect></g><g class="highcharts-legend-item highcharts-column-series highcharts-color-undefined highcharts-series-2" transform="translate(8,16)"><text x="21" y="13" style="color:#333333;font-size:10px;font-weight:normal;cursor:pointer;fill:#333333;" text-anchor="start"><tspan>Umbausaldo</tspan></text><rect x="3" y="4" width="10" height="10" fill="#fabd24" class="highcharts-point"></rect></g><g class="highcharts-legend-item highcharts-line-series highcharts-color-undefined highcharts-series-3" transform="translate(108,16)"><path fill="none" d="M 0 10 L 16 10" class="highcharts-graph" stroke="#000000" stroke-width="2"></path><text x="21" y="13" style="color:#333333;font-size:10px;font-weight:normal;cursor:pointer;fill:#333333;" text-anchor="start"><tspan>Nettowohn…</tspan><title>Nettowohnungsproduktion</title></text></g></g></g></g><g class="highcharts-axis-labels highcharts-xaxis-labels "><text x="56.99836818564794" style="color:#000000;cursor:default;font-size:10;fill:#000000;" text-anchor="end" transform="translate(0,0) rotate(-45 56.99836818564794 183)" y="183" opacity="1"><tspan>2007</tspan></text><text x="84.405047949892" style="color:#000000;cursor:default;font-size:10;fill:#000000;" text-anchor="end" transform="translate(0,0) rotate(-45 84.405047949892 183)" y="183" opacity="1"><tspan>2008</tspan></text><text x="111.81172771413604" style="color:#000000;cursor:default;font-size:10;fill:#000000;" text-anchor="end" transform="translate(0,0) rotate(-45 111.81172771413604 183)" y="183" opacity="1"><tspan>2009</tspan></text><text x="139.2184074783801" style="color:#000000;cursor:default;font-size:10;fill:#000000;" text-anchor="end" transform="translate(0,0) rotate(-45 139.2184074783801 183)" y="183" opacity="1"><tspan>2010</tspan></text><text x="166.62508724262418" style="color:#000000;cursor:default;font-size:10;fill:#000000;" text-anchor="end" transform="translate(0,0) rotate(-45 166.62508724262418 183)" y="183" opacity="1"><tspan>2011</tspan></text><text x="194.03176700686822" style="color:#000000;cursor:default;font-size:10;fill:#000000;" text-anchor="end" transform="translate(0,0) rotate(-45 194.03176700686822 183)" y="183" opacity="1"><tspan>2012</tspan></text><text x="221.4384467711123" style="color:#000000;cursor:default;font-size:10;fill:#000000;" text-anchor="end" transform="translate(0,0) rotate(-45 221.4384467711123 183)" y="183" opacity="1"><tspan>2013</tspan></text><text x="248.84512653535634" style="color:#000000;cursor:default;font-size:10;fill:#000000;" text-anchor="end" transform="translate(0,0) rotate(-45 248.84512653535634 183)" y="183" opacity="1"><tspan>2014</tspan></text><text x="276.2518062996004" style="color:#000000;cursor:default;font-size:10;fill:#000000;" text-anchor="end" transform="translate(0,0) rotate(-45 276.2518062996004 183)" y="183" opacity="1"><tspan>2015</tspan></text><text x="303.65848606384446" style="color:#000000;cursor:default;font-size:10;fill:#000000;" text-anchor="end" transform="translate(0,0) rotate(-45 303.65848606384446 183)" y="183" opacity="1"><tspan>2016</tspan></text></g><g class="highcharts-axis-labels highcharts-yaxis-labels "><text x="23" style="color:#000000;cursor:default;font-size:10;fill:#000000;" text-anchor="end" transform="translate(0,0)" y="173" opacity="1"><tspan>-450</tspan></text><text x="23" style="color:#000000;cursor:default;font-size:10;fill:#000000;" text-anchor="end" transform="translate(0,0)" y="136" opacity="1"><tspan>0</tspan></text><text x="23" style="color:#000000;cursor:default;font-size:10;fill:#000000;" text-anchor="end" transform="translate(0,0)" y="99" opacity="1"><tspan>450</tspan></text><text x="23" style="color:#000000;cursor:default;font-size:10;fill:#000000;" text-anchor="end" transform="translate(0,0)" y="62" opacity="1"><tspan>900</tspan></text></g><text x="10" class="highcharts-credits" text-anchor="start" style="cursor:default;color:#000000;font-size:10px;fill:#000000;" y="193"><tspan>Quelle: Statistisches Amt Basel-Stadt, kantonale Gebäude- und Wohnungsstatistik</tspan></text></svg>

<svg class="highcharts-root" xmlns="http://www.w3.org/2000/svg" width="320" height="208" font-family="arial" font-size="12">
    <defs>
        <clipPath id="a">
            <path fill="none" d="M0 0h279v111H0z"/>
        </clipPath>
    </defs>
    <rect fill="#fbfbfb" class="highcharts-background" width="320" height="208" rx="0" ry="0"/>
    <path fill="none" class="highcharts-plot-background" d="M38 56h279v111H38z"/>
    <g class="highcharts-grid highcharts-xaxis-grid">
        <path fill="none" class="highcharts-grid-line" d="M53.5 56v111m28-111v111m27-111v111m27-111v111m28-111v111m27-111v111m28-111v111m27-111v111m27-111v111m28-111v111"/>
    </g>
    <g class="highcharts-grid highcharts-yaxis-grid">
        <path fill="none" stroke="#B9CFD7" stroke-width=".5" class="highcharts-grid-line" d="M38 167.25h279m-279-37h279m-279-37h279M38 55.75h279"/>
    </g>
    <path fill="none" class="highcharts-plot-border" d="M38 56h279v111H38z"/>
    <g class="highcharts-axis highcharts-xaxis">
        <path fill="none" class="highcharts-axis-line" stroke="#B9CFD7" stroke-width=".5" d="M38 167.25h279"/>
    </g>
    <g class="highcharts-axis highcharts-yaxis">
        <path fill="none" class="highcharts-axis-line" d="M38 56v111"/>
    </g>
    <g class="highcharts-series-group">
        <g class="highcharts-series highcharts-series-0 highcharts-column-series highcharts-color-undefined" transform="translate(38 56)" clip-path="url(#a)">
            <path fill="#b475ab" stroke="#b475ab" class="highcharts-point" d="M8.5 64.5h15v10h-15zm27-7h15v17h-15zm27-21h15v38h-15zm28 7h15v31h-15zm27 1h15v29h-15zm28 6h15v22h-15zm27 7h15v14h-15zm28-28h15v30h-15zm27-22h15v65h-15zm27 24h15v34h-15z"/>
        </g>
        <g class="highcharts-series highcharts-series-1 highcharts-column-series highcharts-color-undefined" transform="translate(38 56)" clip-path="url(#a)">
            <path fill="#a8c4cb" stroke="#a8c4cb" class="highcharts-point highcharts-negative" d="M8.5 80.5h15v9h-15zm27-4h15v11h-15zm27-1h15v13h-15zm28 0h15v12h-15zm27-1h15v5h-15zm28 0h15v2h-15zm27 0h15v3h-15zm28 0h15v4h-15zm27 0h15v15h-15zm27 0h15v6h-15z"/>
        </g>
        <g class="highcharts-series highcharts-series-2 highcharts-column-series highcharts-color-undefined" transform="translate(38 56)" clip-path="url(#a)">
            <path fill="#fabd24" stroke="#fabd24" class="highcharts-point highcharts-negative" d="M8.5 74.5h15v6h-15zm27 0h15v2h-15zm27 0h15v1h-15zm28 0h15v1h-15z"/>
            <path fill="#fabd24" stroke="#fabd24" class="highcharts-point" d="M117.5 73.5h15v1h-15zm28-1h15v2h-15zm27-1h15v3h-15zm28-12h15v15h-15zm27 13h15v2h-15zm27-7h15v9h-15z"/>
        </g>
        <g class="highcharts-series highcharts-series-3 highcharts-line-series highcharts-color-undefined" transform="translate(38 56)" clip-path="url(#a)">
            <path fill="none" d="M16.17 79.016l27.407-8.963 27.406-20.72 27.407 7.565 27.407-8.47 27.406 3.372 27.407 8.14 27.407-26.722 27.406-11.43 27.407 15.788" class="highcharts-graph" stroke="#000" stroke-width="2" stroke-linejoin="round" stroke-linecap="round"/>
        </g>
    </g>
    <text x="3" class="highcharts-title" y="14" color="#000" font-size="10" font-weight="700">
        <tspan>Nettowohnungsproduktion</tspan>
    </text>
    <g class="highcharts-legend" transform="translate(28 7)">
        <rect fill="none" class="highcharts-legend-box" rx="0" ry="0" width="196" height="37"/>
        <g class="highcharts-legend-item highcharts-column-series highcharts-color-undefined highcharts-series-0">
            <text x="21" y="13" color="#333" font-size="10" font-weight="400" cursor="pointer" fill="#333" transform="translate(8 3)">
                <tspan>Neubau</tspan>
            </text>
            <path fill="#b475ab" class="highcharts-point" d="M11 7h10v10H11z"/>
        </g>
        <g class="highcharts-legend-item highcharts-column-series highcharts-color-undefined highcharts-series-1">
            <text x="21" y="13" color="#333" font-size="10" font-weight="400" cursor="pointer" fill="#333" transform="translate(108 3)">
                <tspan>Abbruch</tspan>
            </text>
            <path fill="#a8c4cb" class="highcharts-point" d="M111 7h10v10h-10z"/>
        </g>
        <g class="highcharts-legend-item highcharts-column-series highcharts-color-undefined highcharts-series-2">
            <text x="21" y="13" color="#333" font-size="10" font-weight="400" cursor="pointer" fill="#333" transform="translate(8 16)">
                <tspan>Umbausaldo</tspan>
            </text>
            <path fill="#fabd24" class="highcharts-point" d="M11 20h10v10H11z"/>
        </g>
        <g class="highcharts-legend-item highcharts-line-series highcharts-color-undefined highcharts-series-3">
            <path fill="none" d="M108 26h16" class="highcharts-graph" stroke="#000" stroke-width="2"/>
            <text x="21" y="13" color="#333" font-size="10" font-weight="400" cursor="pointer" fill="#333" transform="translate(108 16)">
                <tspan>Nettowohn…</tspan><title>Nettowohnungsproduktion</title>
            </text>
        </g>
    </g>
    <g class="highcharts-axis-labels highcharts-xaxis-labels" text-anchor="end" color="#000" cursor="default" font-size="10">
        <text x="56.998" transform="rotate(-45 56.998 183)" y="183">
            <tspan>2007</tspan>
        </text>
        <text x="84.405" transform="rotate(-45 84.405 183)" y="183">
            <tspan>2008</tspan>
        </text>
        <text x="111.812" transform="rotate(-45 111.812 183)" y="183">
            <tspan>2009</tspan>
        </text>
        <text x="139.218" transform="rotate(-45 139.218 183)" y="183">
            <tspan>2010</tspan>
        </text>
        <text x="166.625" transform="rotate(-45 166.625 183)" y="183">
            <tspan>2011</tspan>
        </text>
        <text x="194.032" transform="rotate(-45 194.032 183)" y="183">
            <tspan>2012</tspan>
        </text>
        <text x="221.438" transform="rotate(-45 221.438 183)" y="183">
            <tspan>2013</tspan>
        </text>
        <text x="248.845" transform="rotate(-45 248.845 183)" y="183">
            <tspan>2014</tspan>
        </text>
        <text x="276.252" transform="rotate(-45 276.252 183)" y="183">
            <tspan>2015</tspan>
        </text>
        <text x="303.658" transform="rotate(-45 303.658 183)" y="183">
            <tspan>2016</tspan>
        </text>
    </g>
    <g class="highcharts-axis-labels highcharts-yaxis-labels" text-anchor="end" color="#000" cursor="default" font-size="10">
        <text x="23" y="173">
            <tspan>-450</tspan>
        </text>
        <text x="23" y="136">
            <tspan>0</tspan>
        </text>
        <text x="23" y="99">
            <tspan>450</tspan>
        </text>
        <text x="23" y="62">
            <tspan>900</tspan>
        </text>
    </g>
    <text x="10" class="highcharts-credits" y="193" cursor="default" color="#000" font-size="10">
        <tspan>Quelle: Statistisches Amt Basel-Stadt, kantonale Gebäude- und Wohnungsstatistik</tspan>
    </text>
</svg>
